svg/700/rounded/female-fill.svg

<svg xmlns="http://www.w3.org/2000/svg" width="48" height="48" viewBox="0 -960 960 960"><path d="M433-172h-37q-17.625 0-30.312-13.175Q353-198.351 353-216.675 353-235 366.188-247.5 379.375-260 397-260h36v-89q-83-16-136.5-81.206T243-580q0-98.495 69.241-167.748Q381.482-817 480-817q98.518 0 167.759 69.252Q717-678.495 717-580q0 84.588-53.5 149.794Q610-365 527-349v89h37q17.625 0 30.312 12.738Q607-234.524 607-216.825 607-198 594.312-185 581.625-172 564-172h-37v32q0 20.75-13.675 34.375Q499.649-92 479.825-92 460-92 446.5-105.625 433-119.25 433-140v-32Zm46.798-265Q540-437 581.5-478.298t41.5-101.5Q623-640 581.702-681.5t-101.5-41.5Q420-723 378.5-681.702t-41.5 101.5Q337-520 378.298-478.5t101.5 41.5Z"/></svg>

<svg xmlns="http://www.w3.org/2000/svg" width="48" height="48" viewBox="0 -960 960 960"><path d="M433-172h-37q-17.62 0-30.31-13.18Q353-198.35 353-216.68q0-18.32 13.19-30.82T397-260h36v-89q-83-16-136.5-81.21Q243-495.41 243-580q0-98.5 69.24-167.75T480-817q98.52 0 167.76 69.25T717-580q0 84.59-53.5 149.79Q610-365 527-349v89h37q17.63 0 30.31 12.74Q607-234.52 607-216.82 607-198 594.31-185q-12.68 13-30.31 13h-37v32q0 20.75-13.68 34.37Q499.65-92 479.82-92 460-92 446.5-105.63 433-119.25 433-140v-32Zm46.8-265q60.2 0 101.7-41.3T623-579.8q0-60.2-41.3-101.7T480.2-723q-60.2 0-101.7 41.3T337-580.2q0 60.2 41.3 101.7T479.8-437Z"/></svg>
